X: 809
T: Ragtime Annie
C:Kenny Baker's
B: jims roots
M:C|
L:1/8
R: Rag
Q: 1/4=100
K:D
V:1 
DE|: "D"FFBF DFBF | DFBF A2FE | DFAB dAFD | "A7"GFEG c2Bc |
ABcA BAcA | BFGA cA (3BcB | ABcd egfe |[1 "D"d2cd (3BdB AF :| [2 "D"dBAF D2fg||
"D"a2(a2 a)gfd | [A6f] fg | a2(a2a2)g2 | "G"[B6g] ef | "A7"g2efg2ef | gfef gfed |
cAcB ABAG | "D"[F4A] [D2A]fg || afbf afde | fdeg fedA | "D7"=cdfg afga |
"G"[B6g]ef | gfga bfge | "D"fdfg a2fa | "A7"ecBc egfe | "D"[d3f][df][d2f] ||
% abcbook-tune_id 6298c279677a7461e688ec3e


% abcbook-boost 0
% abcbook-tablature 
% abcbook-transpose 
% abcbook-lastupdated 1654178426736
% abcbook-soundfonts 
% abcbook-repeats 1


